svg/device/cube_3d_fill.svg

<?xml version="1.0" encoding="UTF-8"?>
<svg width="24px" height="24px" viewBox="0 0 24 24" version="1.1" xmlns="http://www.w3.org/2000/svg" xmlns:xlink="http://www.w3.org/1999/xlink">
    <title>3d_cube_fill</title>
    <g id="Icon" stroke="none" stroke-width="1" fill="none" fill-rule="evenodd">
        <g id="Device" transform="translate(-720.000000, -336.000000)">
            <g id="3d_cube_fill" transform="translate(720.000000, 336.000000)">
                <path d="M24,0 L24,24 L0,24 L0,0 L24,0 Z M12.5935,23.2578 L12.5819,23.2595 L12.5109,23.295 L12.4919,23.2987 L12.4767,23.295 L12.4057,23.2595 C12.3958,23.2564 12.387,23.259 12.3821,23.2649 L12.378,23.2758 L12.3609,23.7031 L12.3659,23.7235 L12.3769,23.7357 L12.4805,23.8097 L12.4953,23.8136 L12.5071,23.8097 L12.6107,23.7357 L12.6233,23.7197 L12.6267,23.7031 L12.6096,23.2758 C12.6076,23.2657 12.601,23.2593 12.5935,23.2578 Z M12.8584,23.1453 L12.8445,23.1473 L12.6598,23.2397 L12.6499,23.2499 L12.6472,23.2611 L12.6651,23.6906 L12.6699,23.7034 L12.6784,23.7105 L12.8793,23.8032 C12.8914,23.8069 12.9022,23.803 12.9078,23.7952 L12.9118,23.7812 L12.8777,23.1665 C12.8753,23.1546 12.8674,23.147 12.8584,23.1453 Z M12.143,23.1473 C12.1332,23.1424 12.1222,23.1453 12.1156,23.1526 L12.1099,23.1665 L12.0758,23.7812 C12.0751,23.7927 12.0828,23.8019 12.0926,23.8046 L12.1083,23.8032 L12.3092,23.7105 L12.3186,23.7024 L12.3225,23.6906 L12.3404,23.2611 L12.3372,23.2485 L12.3278,23.2397 L12.143,23.1473 Z" id="MingCute" fill-rule="nonzero"></path>
                <path d="M11.2502,1.70096 C11.7143,1.43301 12.2861,1.43301 12.7502,1.70096 L14.7502,2.85566 C15.4676,3.26988 15.7134,4.18726 15.2992,4.9047 C14.9318,5.54105 14.1686,5.80636 13.5001,5.56917 L13.5001,6.00007 C13.5001,6.82849 12.8285,7.50002 12,7.50002 C11.1716,7.50002 10.5001,6.82841 10.5001,5.99998 L10.5001,5.56922 C9.83166,5.80632 9.06849,5.541 8.70113,4.9047 C8.28691,4.18726 8.53273,3.26988 9.25016,2.85566 L11.2502,1.70096 Z M7.17955,7.48663 C7.72023,7.02647 7.87261,6.23208 7.50493,5.59524 C7.09071,4.8778 6.17333,4.63199 5.45589,5.0462 L3.45589,6.2009 C2.99179,6.46885 2.70589,6.96404 2.70589,7.49994 L2.70589,9.80934 C2.70589,10.6378 3.37746,11.3093 4.20589,11.3093 C4.94118,11.3093 5.55291,10.7803 5.68116,10.0821 C6.38891,10.4492 7.26716,10.1975 7.66988,9.50006 C8.07263,8.80254 7.85148,7.916 7.17955,7.48663 Z M16.4953,5.59539 C16.9095,4.87796 17.8269,4.63214 18.5444,5.04636 L20.5444,6.20106 C21.0085,6.46901 21.2944,6.9642 21.2944,7.5001 L21.2944,9.8095 C21.2944,10.6379 20.6228,11.3095 19.7944,11.3095 C19.059,11.3095 18.4473,10.7804 18.3191,10.0821 C17.6113,10.4493 16.733,10.1976 16.3303,9.50008 C15.9276,8.80258 16.1487,7.91608 16.8206,7.48672 C16.28,7.02656 16.1277,6.23221 16.4953,5.59539 Z M8.53601,9.99988 C8.95024,9.28246 9.86764,9.03668 10.5851,9.45092 L12.0001,10.268 L13.4152,9.45097 C14.1327,9.03677 15.05,9.2826 15.4642,10.0001 C15.8784,10.7175 15.6326,11.6349 14.9152,12.0491 L13.5,12.8661 L13.5,14.5 C13.5,15.3284 12.8285,16 12,16 C11.1716,16 10.5,15.3284 10.5,14.5 L10.5,12.866 L9.08497,12.0489 C8.36755,11.6347 8.12177,10.7173 8.53601,9.99988 Z M5.6808,13.9163 C5.55195,13.2189 4.94057,12.6906 4.20581,12.6906 C3.37738,12.6906 2.70581,13.3621 2.70581,14.1906 L2.70581,16.5 C2.70581,17.0359 2.99171,17.5311 3.45581,17.799 L5.45581,18.9537 C6.17325,19.3679 7.09064,19.1221 7.50485,18.4047 C7.87223,17.7684 7.7204,16.9747 7.1808,16.5144 L7.55392,16.299 C8.27136,15.8848 8.51717,14.9674 8.10296,14.25 C7.68874,13.5325 6.77136,13.2867 6.05392,13.7009 L5.6808,13.9163 Z M19.7943,12.6907 C20.6227,12.6907 21.2943,13.3623 21.2943,14.1907 L21.2943,16.5001 C21.2943,17.036 21.0084,17.5312 20.5443,17.7991 L18.5443,18.9538 C17.8268,19.3681 16.9094,19.1222 16.4952,18.4048 C16.1278,17.7685 16.2797,16.9748 16.8193,16.5145 L16.4462,16.299 C15.7287,15.8848 15.483,14.9674 15.8972,14.25 C16.3114,13.5326 17.2288,13.2868 17.9462,13.701 L18.3193,13.9164 C18.4482,13.219 19.0595,12.6907 19.7943,12.6907 Z M12.0001,17 C12.8055,17 13.4626,17.6348 13.4985,18.4314 C14.1673,18.1933 14.9314,18.4585 15.2991,19.0953 C15.7133,19.8127 15.4675,20.7301 14.75,21.1443 L12.75,22.299 C12.2859,22.567 11.7141,22.567 11.25,22.299 L9.25004,21.1443 C8.5326,20.7301 8.28679,19.8127 8.701,19.0953 C9.06867,18.4585 9.83278,18.1933 10.5016,18.4314 C10.5375,17.6348 11.1946,17 12.0001,17 Z" id="形状" fill="#09244B"></path>
            </g>
        </g>
    </g>
</svg>

<svg xmlns="http://www.w3.org/2000/svg" width="24" height="24"><g fill="none" fill-rule="evenodd"><path d="M24 0v24H0V0h24ZM12.594 23.258l-.012.002-.071.035-.02.004-.014-.004-.071-.036c-.01-.003-.019 0-.024.006l-.004.01-.017.428.005.02.01.013.104.074.015.004.012-.004.104-.074.012-.016.004-.017-.017-.427c-.002-.01-.009-.017-.016-.018Zm.264-.113-.014.002-.184.093-.01.01-.003.011.018.43.005.012.008.008.201.092c.012.004.023 0 .029-.008l.004-.014-.034-.614c-.003-.012-.01-.02-.02-.022Zm-.715.002a.023.023 0 0 0-.027.006l-.006.014-.034.614c0 .012.007.02.017.024l.015-.002.201-.093.01-.008.003-.011.018-.43-.003-.012-.01-.01-.184-.092Z"/><path fill="#09244B" d="M11.25 1.701a1.5 1.5 0 0 1 1.5 0l2 1.155a1.5 1.5 0 0 1-1.25 2.713V6a1.5 1.5 0 0 1-3 0v-.43a1.5 1.5 0 0 1-1.25-2.714l2-1.155ZM7.18 7.487a1.5 1.5 0 0 0-1.724-2.44l-2 1.154a1.5 1.5 0 0 0-.75 1.299v2.31a1.5 1.5 0 0 0 2.975.272A1.5 1.5 0 0 0 7.18 7.487Zm9.315-1.892a1.5 1.5 0 0 1 2.05-.549l2 1.155a1.5 1.5 0 0 1 .75 1.3v2.308a1.5 1.5 0 0 1-2.976.273 1.5 1.5 0 0 1-1.498-2.595 1.5 1.5 0 0 1-.326-1.892ZM8.536 10a1.5 1.5 0 0 1 2.05-.55l1.414.818 1.415-.817a1.5 1.5 0 1 1 1.5 2.598l-1.415.817V14.5a1.5 1.5 0 1 1-3 0v-1.634l-1.415-.817a1.5 1.5 0 0 1-.549-2.05Zm-2.855 3.916a1.5 1.5 0 0 0-2.975.275V16.5a1.5 1.5 0 0 0 .75 1.299l2 1.155a1.5 1.5 0 0 0 1.725-2.44l.373-.215a1.5 1.5 0 1 0-1.5-2.598l-.373.215Zm14.113-1.225a1.5 1.5 0 0 1 1.5 1.5v2.31a1.5 1.5 0 0 1-.75 1.298l-2 1.155a1.5 1.5 0 0 1-1.725-2.44l-.373-.215a1.5 1.5 0 1 1 1.5-2.598l.373.215a1.5 1.5 0 0 1 1.475-1.225ZM12 17a1.5 1.5 0 0 1 1.499 1.431 1.5 1.5 0 0 1 1.251 2.713l-2 1.155a1.5 1.5 0 0 1-1.5 0l-2-1.155a1.5 1.5 0 0 1 1.252-2.713A1.5 1.5 0 0 1 12 17Z"/></g></svg>
